X:361
T:Pioneer's Call (or Fatigue)
S:Bruce & Emmett's Drummers and Fifers Guide (1862), p. 36
M:6/8
L:1/8
Q:Allegro
K:G
%%MIDI program 72
%%MIDI transpose 8
%%MIDI ratio 3 1
B/c/|dcB .c.B.A|G2A B2B/c/|dcB cAD|G3 z2::z|G2d Td2z|G2e Te2z|G2g fed|ed^c d2:||
